X:54
T:Miss Elizabeth Ferguson's Favorite
C:Allan Stewart
S:Petrie's Third Collection of Strathspey Reels and Country Dances &c.
Z:Steve Wyrick <sjwyrick'at'gmail'dot'com>, 7/31/05
N:Petrie's Third Collection, page 21
L:1/8
M:6/8
R:Jig
K:A
"^Slowish"
c/d/|e2c f2d|e2c A2g|a2e c2A|GBB B2 c/d/|e2c f2d|g2e a2f|eac BGE|
AAA A2:|c/B/|A2E C2A,|F2D B,2E|C2A c2A|GBB B2 |1c/B/|AGF EDC|EAG A2E|
FBA GFE|AAA A2:|2c/d/|ecf dBf|eaf ecA|Fdf eEG|AAA A2|]
